X: 17515
T: Hills Of Kaitoke, The
R: reel
M: 4/4
K: Emajor
|:g3 g2 agB|c3 c2 Bfg|agfe Bceg|f3 f2 g/f/e f|
g3 g2 agB|c3 c2 BGE|CEFG ABce|1 fege fBef:|2 fege fefg||
|:ag B3 agf|gfe B2 gfe|feBf eBce|fege fefg|
ag B3 agf|gfe B2 AGE|CEFG ABce|1 fege fefg:|2 fege f3e||

